src/assets/images/realtime/realtimekit/web/components-gallery/rtk-recording-indicator.svg

<svg xmlns="http://www.w3.org/2000/svg" xmlns:xlink="http://www.w3.org/1999/xlink" width="400" height="300" fill="none" viewBox="0 0 400 300"><g clip-path="url(#clip0_9781_45152)"><path fill="#fff" d="M0 0h400v300H0z"/><path fill="url(#pattern0_9781_45152)" d="M0 4.21A4.21 4.21 0 0 1 4.21 0h391.58A4.21 4.21 0 0 1 400 4.21v291.58a4.21 4.21 0 0 1-4.211 4.211H4.211A4.21 4.21 0 0 1 0 295.789z" style="mix-blend-mode:darken"/><rect width="899.536" height="738" x="78" y="74" fill="#0b0b0b" rx="24.409"/><g clip-path="url(#clip1_9781_45152)" opacity=".4"><rect width="406.819" height="305.115" x="108.743" y="172.189" fill="#1e1e1e" rx="12.205"/></g><rect width="105.463" height="48.316" x="110.272" y="106.273" stroke="#f01523" stroke-width="1.198" rx="6.474"/><path fill="#f01523" d="M137.82 137.358a7.074 7.074 0 1 0 0-14.147 7.074 7.074 0 0 0 0 14.147m0-19.452c-6.836 0-12.378 5.542-12.378 12.379s5.542 12.378 12.378 12.378 12.379-5.542 12.379-12.378-5.542-12.379-12.379-12.379m-10.61 12.379c0-5.86 4.751-10.61 10.61-10.61 5.86 0 10.611 4.75 10.611 10.61s-4.751 10.61-10.611 10.61c-5.859 0-10.61-4.75-10.61-10.61m33.319 8.146v-15.433h6.089q1.748 0 2.984.626 1.243.618 1.891 1.755.656 1.131.656 2.661 0 1.536-.663 2.645-.663 1.1-1.922 1.688-1.251.587-3.029.587h-4.077v-2.622h3.549q.935 0 1.553-.256t.919-.769q.309-.513.309-1.273 0-.77-.309-1.297-.302-.527-.927-.798-.618-.279-1.56-.279h-2.2v12.765zm8.334-7.023 3.836 7.023h-3.602l-3.753-7.023zm5.592 7.023v-15.433h10.399v2.69h-7.136v3.678h6.601v2.69h-6.601v3.685h7.166v2.69zm26.61-10.03h-3.301a3.2 3.2 0 0 0-.369-1.138 2.9 2.9 0 0 0-.716-.859 3.1 3.1 0 0 0-1.01-.542 3.9 3.9 0 0 0-1.228-.189q-1.199 0-2.087.596-.89.587-1.379 1.718-.49 1.122-.49 2.728 0 1.65.49 2.773.496 1.122 1.386 1.695t2.057.573q.656 0 1.214-.173a3.2 3.2 0 0 0 1.002-.505q.437-.339.723-.822.294-.482.407-1.1l3.301.015a6 6 0 0 1-.641 2.05 6.2 6.2 0 0 1-1.364 1.756 6.4 6.4 0 0 1-2.034 1.221q-1.176.444-2.66.444-2.066 0-3.693-.934-1.62-.934-2.562-2.706-.934-1.77-.934-4.287 0-2.525.949-4.296.95-1.77 2.577-2.697 1.628-.935 3.663-.935 1.341 0 2.486.377a6.3 6.3 0 0 1 2.043 1.1 5.7 5.7 0 0 1 1.446 1.756q.565 1.04.724 2.381"/><path fill="#1e1e1e" fill-opacity=".4" d="M391.57 127.845c0-5.247 4.254-9.502 9.502-9.502h247.056c6.997 0 12.669 5.673 12.669 12.67a9.5 9.5 0 0 1-9.502 9.502H401.072a9.5 9.5 0 0 1-9.502-9.502z"/></g><defs><clipPath id="clip0_9781_45152"><path fill="#fff" d="M0 0h400v300H0z"/></clipPath><clipPath id="clip1_9781_45152"><rect width="406.819" height="305.115" x="108.743" y="172.189" fill="#fff" rx="12.205"/></clipPath><pattern id="pattern0_9781_45152" width=".037" height=".049" patternContentUnits="objectBoundingBox"><use xlink:href="#image0_9781_45152" transform="scale(.00066 .00088)"/></pattern><image xlink:href="data:image/png;base64,iVBORw0KGgoAAAANSUhEUgAAADgAAAA4CAYAAACohjseAAAACXBIWXMAACxLAAAsSwGlPZapAAAAAXNSR0IArs4c6QAAAARnQU1BAACxjwv8YQUAAADdSURBVHgB7dmxDoMgFIXhCzEmbsbF9388F8PGAKHt6dSksvXaHHK+EQbzB0Sj4fFiA4s2OAWyUyA7BbJTIDsFslMgOwWyUyA7BbJTIDsFspvsBrVWO8/TSinWWrNlWWxdV5sm/8sH7w+/iDuO4x32KcZo+767R7pv0ZTSVxxgDKvqzT0w59ydw5b15h4YQujOXa3sr7kHzvPcncNh4809cNu2y1XEGE5Sb+GO32c4SXHY4H5EGFYV4UM8Jv5Nr2rsFMhOgewUyE6B7BTIToHsFMhOgewUyE6B7IYPfALcB0NZ5j6jXgAAAABJRU5ErkJggg==" id="image0_9781_45152" width="56" height="56" preserveAspectRatio="none"/></defs></svg>

<svg width="400" height="300" viewBox="0 0 400 300" fill="none" xmlns="http://www.w3.org/2000/svg" xmlns:xlink="http://www.w3.org/1999/xlink">
<g clip-path="url(#clip0_9781_45152)">
<rect width="400" height="300" fill="white"/>
<g style="mix-blend-mode:darken">
<path d="M0 4.21053C0 1.88512 1.88512 0 4.21053 0H395.789C398.115 0 400 1.88512 400 4.21053V295.789C400 298.115 398.115 300 395.789 300H4.21054C1.88513 300 0 298.115 0 295.789V4.21053Z" fill="url(#pattern0_9781_45152)"/>
</g>
<rect x="78" y="74" width="899.536" height="738" rx="24.4092" fill="#0B0B0B"/>
<g opacity="0.4">
<g clip-path="url(#clip1_9781_45152)">
<rect x="108.743" y="172.189" width="406.819" height="305.115" rx="12.2046" fill="#1E1E1E"/>
</g>
</g>
<rect x="110.272" y="106.273" width="105.463" height="48.3161" rx="6.47447" stroke="#F01523" stroke-width="1.19792"/>
<path d="M137.82 137.358C141.727 137.358 144.894 134.191 144.894 130.285C144.894 126.378 141.727 123.211 137.82 123.211C133.914 123.211 130.747 126.378 130.747 130.285C130.747 134.191 133.914 137.358 137.82 137.358ZM137.82 117.906C130.984 117.906 125.442 123.448 125.442 130.285C125.442 137.121 130.984 142.663 137.82 142.663C144.657 142.663 150.199 137.121 150.199 130.285C150.199 123.448 144.657 117.906 137.82 117.906ZM127.21 130.285C127.21 124.425 131.961 119.675 137.82 119.675C143.68 119.675 148.431 124.425 148.431 130.285C148.431 136.145 143.68 140.895 137.82 140.895C131.961 140.895 127.21 136.145 127.21 130.285Z" fill="#F01523"/>
<path d="M160.529 138.431V122.998H166.618C167.783 122.998 168.778 123.207 169.602 123.624C170.431 124.036 171.061 124.621 171.493 125.379C171.93 126.133 172.149 127.02 172.149 128.04C172.149 129.064 171.928 129.946 171.486 130.685C171.044 131.418 170.403 131.981 169.564 132.373C168.73 132.764 167.72 132.96 166.535 132.96H162.458V130.338H166.007C166.63 130.338 167.148 130.252 167.56 130.082C167.972 129.911 168.278 129.655 168.479 129.313C168.685 128.971 168.788 128.547 168.788 128.04C168.788 127.527 168.685 127.095 168.479 126.743C168.278 126.392 167.969 126.125 167.552 125.945C167.14 125.759 166.62 125.666 165.992 125.666H163.792V138.431H160.529ZM168.863 131.408L172.699 138.431H169.097L165.344 131.408H168.863ZM174.455 138.431V122.998H184.854V125.688H177.718V129.366H184.319V132.056H177.718V135.741H184.884V138.431H174.455ZM201.065 128.401H197.764C197.704 127.974 197.581 127.595 197.395 127.263C197.209 126.927 196.97 126.64 196.679 126.404C196.388 126.168 196.051 125.987 195.669 125.862C195.293 125.736 194.883 125.673 194.441 125.673C193.642 125.673 192.946 125.872 192.354 126.269C191.761 126.661 191.301 127.233 190.975 127.987C190.648 128.735 190.485 129.645 190.485 130.715C190.485 131.815 190.648 132.739 190.975 133.488C191.306 134.236 191.768 134.801 192.361 135.183C192.954 135.565 193.64 135.756 194.418 135.756C194.855 135.756 195.26 135.698 195.632 135.583C196.008 135.467 196.343 135.299 196.634 135.078C196.925 134.852 197.166 134.578 197.357 134.256C197.553 133.935 197.689 133.568 197.764 133.156L201.065 133.171C200.979 133.88 200.766 134.563 200.424 135.221C200.088 135.874 199.633 136.459 199.06 136.977C198.493 137.489 197.814 137.896 197.026 138.198C196.242 138.494 195.355 138.642 194.366 138.642C192.989 138.642 191.758 138.331 190.673 137.708C189.593 137.085 188.739 136.183 188.111 135.002C187.488 133.822 187.177 132.393 187.177 130.715C187.177 129.032 187.493 127.6 188.126 126.419C188.759 125.239 189.618 124.34 190.703 123.722C191.788 123.099 193.009 122.787 194.366 122.787C195.26 122.787 196.089 122.913 196.852 123.164C197.621 123.415 198.302 123.782 198.895 124.264C199.487 124.741 199.97 125.327 200.341 126.02C200.718 126.713 200.959 127.507 201.065 128.401Z" fill="#F01523"/>
<path d="M391.57 127.845C391.57 122.598 395.824 118.343 401.072 118.343H648.128C655.125 118.343 660.797 124.016 660.797 131.013C660.797 136.261 656.543 140.515 651.295 140.515H401.072C395.824 140.515 391.57 136.261 391.57 131.013V127.845Z" fill="#1E1E1E" fill-opacity="0.4"/>
</g>
<defs>
<pattern id="pattern0_9781_45152" patternContentUnits="objectBoundingBox" width="0.0368421" height="0.0491228">
<use xlink:href="#image0_9781_45152" transform="scale(0.000657895 0.000877193)"/>
</pattern>
<clipPath id="clip0_9781_45152">
<rect width="400" height="300" fill="white"/>
</clipPath>
<clipPath id="clip1_9781_45152">
<rect x="108.743" y="172.189" width="406.819" height="305.115" rx="12.2046" fill="white"/>
</clipPath>
<image id="image0_9781_45152" width="56" height="56" preserveAspectRatio="none" xlink:href="data:image/png;base64,iVBORw0KGgoAAAANSUhEUgAAADgAAAA4CAYAAACohjseAAAACXBIWXMAACxLAAAsSwGlPZapAAAAAXNSR0IArs4c6QAAAARnQU1BAACxjwv8YQUAAADdSURBVHgB7dmxDoMgFIXhCzEmbsbF9388F8PGAKHt6dSksvXaHHK+EQbzB0Sj4fFiA4s2OAWyUyA7BbJTIDsFslMgOwWyUyA7BbJTIDsFspvsBrVWO8/TSinWWrNlWWxdV5sm/8sH7w+/iDuO4x32KcZo+767R7pv0ZTSVxxgDKvqzT0w59ydw5b15h4YQujOXa3sr7kHzvPcncNh4809cNu2y1XEGE5Sb+GO32c4SXHY4H5EGFYV4UM8Jv5Nr2rsFMhOgewUyE6B7BTIToHsFMhOgewUyE6B7IYPfALcB0NZ5j6jXgAAAABJRU5ErkJggg=="/>
</defs>
</svg>
